public/design_10/images/gift-card.svg

<svg width="140" height="140" viewBox="0 0 140 140" fill="none" xmlns="http://www.w3.org/2000/svg">
<path d="M47.8515 22C36.3953 22 25.881 26.0279 17.6429 32.7422V106.961C25.881 113.675 36.3953 117.703 47.8515 117.703C74.2793 117.703 95.7031 96.2793 95.7031 69.8516C95.7031 43.4238 74.2793 22 47.8515 22Z" fill="#2A464D"/>
<path d="M100 40.5547V99.1484C100 103.463 96.502 106.961 92.1875 106.961H17.6406C6.875 98.1875 0 84.8223 0 69.8516C0 54.8809 6.875 41.5156 17.6406 32.7422H92.1875C96.502 32.7422 100 36.2402 100 40.5547Z" fill="#FF746C"/>
<path d="M17.643 106.961H41.668C37.3533 106.961 33.8555 103.463 33.8555 99.1484V40.5547C33.8555 36.24 37.3533 32.7422 41.668 32.7422H17.643C6.87715 41.5166 0 54.8801 0 69.8516C0 84.823 6.87715 98.1865 17.643 106.961Z" fill="#E2635C"/>
<path d="M9.76562 46.4141C9.76562 44.2566 11.5145 42.5078 13.6719 42.5078H44.9219C47.0793 42.5078 48.8281 44.2566 48.8281 46.4141C48.8281 48.5715 47.0793 50.3203 44.9219 50.3203H13.6719C11.5145 50.3203 9.76562 48.5715 9.76562 46.4141Z" fill="#FFC839"/>
<path d="M21.4844 46.4141C21.4844 44.2566 23.2332 42.5078 25.3906 42.5078H13.6719C11.5145 42.5078 9.76562 44.2566 9.76562 46.4141C9.76562 48.5715 11.5145 50.3203 13.6719 50.3203H25.3906C23.2332 50.3203 21.4844 48.5715 21.4844 46.4141Z" fill="#FFB332"/>
<path d="M66.3441 108.914H78.0629C79.1416 108.914 80.016 108.04 80.016 106.961V32.7422C80.016 31.6635 79.1416 30.7891 78.0629 30.7891H66.3441C65.2654 30.7891 64.391 31.6635 64.391 32.7422V106.961C64.391 108.04 65.2654 108.914 66.3441 108.914Z" fill="#FFB332"/>
<path d="M80.016 106.822C80.016 102.508 76.5181 99.01 72.2035 99.01C67.8888 99.01 64.391 102.508 64.391 106.822V58.2713C64.391 62.5859 67.8888 66.0838 72.2035 66.0838C76.5181 66.0838 80.016 62.5859 80.016 58.2713V106.822Z" fill="#FF9433"/>
<path d="M70.2506 108.914H67.3209V30.7891H70.2506V108.914Z" fill="#FFC839"/>
<path d="M67.3207 100.726C68.1703 100.045 69.164 99.5358 70.2504 99.2561V65.8377C69.164 65.558 68.1703 65.0492 67.3207 64.368V100.726Z" fill="#FFB332"/>
<path d="M74.1566 30.7891H77.0863V108.914H74.1566V30.7891Z" fill="#FFC839"/>
<path d="M74.1566 99.2561C75.2429 99.5358 76.2367 100.045 77.0863 100.726V64.368C76.2367 65.0492 75.2429 65.558 74.1566 65.8377V99.2561Z" fill="#FFB332"/>
<path d="M74.1566 79.1988H93.2646C93.2646 72.6414 90.3125 66.0838 87.4853 66.0838C80.3881 66.0838 74.1568 78.2473 74.1568 78.2473V79.1988H74.1566Z" fill="#FFE177"/>
<path d="M70.2504 78.2473C70.2504 78.2473 64.0191 66.0838 56.9219 66.0838C54.0947 66.0838 51.1426 72.6412 51.1426 79.1988H70.2506V78.2473H70.2504Z" fill="#FFC839"/>
<path d="M70.2504 85.895H51.1426C51.1426 92.4524 54.0947 99.01 56.9219 99.01C64.0191 99.01 70.2504 86.8465 70.2504 86.8465V85.895Z" fill="#FFC839"/>
<path d="M74.1567 86.8465C74.1567 86.8465 80.3879 99.01 87.4852 99.01C90.3124 99.01 93.2645 92.4526 93.2645 85.895H74.1565V86.8465H74.1567Z" fill="#FFE177"/>
<path d="M74.1566 85.5639C74.1566 85.5639 85.6275 94.2016 91.7246 94.2016C97.8217 94.2016 97.8217 70.8922 91.7246 70.8922C85.6275 70.8922 74.1566 79.5299 74.1566 79.5299V85.5639Z" fill="#FFE177"/>
<path d="M70.2504 79.5299C70.2504 79.5299 58.7795 70.8922 52.6824 70.8922C46.5854 70.8922 46.5854 94.2016 52.6824 94.2016C58.7795 94.2016 70.2504 85.5639 70.2504 85.5639V79.5299Z" fill="#FFE177"/>
<path d="M74.1566 74.7344C73.4443 74.7344 72.7785 74.9281 72.2035 75.2611C71.6285 74.9281 70.9627 74.7344 70.2504 74.7344C68.0929 74.7344 66.3441 76.4832 66.3441 78.6406V86.4531C66.3441 88.6105 68.0929 90.3594 70.2504 90.3594C70.9627 90.3594 71.6285 90.1656 72.2035 89.8326C72.7785 90.1656 73.4443 90.3594 74.1566 90.3594C76.314 90.3594 78.0629 88.6105 78.0629 86.4531V78.6406C78.0629 76.4832 76.314 74.7344 74.1566 74.7344Z" fill="#FCF2C8"/>
<path d="M70.2504 86.4532V78.6407C70.2504 77.1958 71.0371 75.937 72.2035 75.2614C71.6285 74.9284 70.9627 74.7346 70.2504 74.7346C68.0929 74.7346 66.3441 76.4834 66.3441 78.6409V86.4534C66.3441 88.6108 68.0929 90.3596 70.2504 90.3596C70.9627 90.3596 71.6285 90.1659 72.2035 89.8329C71.0371 89.1569 70.2504 87.8981 70.2504 86.4532Z" fill="#FFE177"/>
<path d="M13.6719 62.0391C15.8292 62.0391 17.5781 60.2902 17.5781 58.1328C17.5781 55.9755 15.8292 54.2266 13.6719 54.2266C11.5145 54.2266 9.76562 55.9755 9.76562 58.1328C9.76562 60.2902 11.5145 62.0391 13.6719 62.0391Z" fill="#FFC839"/>
<path d="M13.6719 58.1328C13.6719 56.6879 14.4586 55.4291 15.625 54.7533C15.05 54.4203 14.3842 54.2266 13.6719 54.2266C11.5145 54.2266 9.76562 55.9754 9.76562 58.1328C9.76562 60.2902 11.5145 62.0391 13.6719 62.0391C14.3842 62.0391 15.05 61.8453 15.625 61.5123C14.4586 60.8365 13.6719 59.5777 13.6719 58.1328Z" fill="#FFB332"/>
<path d="M25.3906 62.0391C27.548 62.0391 29.2969 60.2902 29.2969 58.1328C29.2969 55.9755 27.548 54.2266 25.3906 54.2266C23.2333 54.2266 21.4844 55.9755 21.4844 58.1328C21.4844 60.2902 23.2333 62.0391 25.3906 62.0391Z" fill="#FFC839"/>
<path d="M25.3906 58.1328C25.3906 56.6879 26.1773 55.4291 27.3438 54.7533C26.7688 54.4203 26.1029 54.2266 25.3906 54.2266C23.2332 54.2266 21.4844 55.9754 21.4844 58.1328C21.4844 60.2902 23.2332 62.0391 25.3906 62.0391C26.1029 62.0391 26.7688 61.8453 27.3438 61.5123C26.1773 60.8365 25.3906 59.5777 25.3906 58.1328Z" fill="#FFB332"/>
</svg>

<svg xmlns="http://www.w3.org/2000/svg" width="140" height="140" fill="none"><path fill="#2A464D" d="M47.852 22a47.65 47.65 0 0 0-30.21 10.742v74.219a47.65 47.65 0 0 0 30.21 10.742c26.427 0 47.851-21.424 47.851-47.851C95.703 43.424 74.28 22 47.852 22"/><path fill="#FF746C" d="M100 40.555v58.593a7.813 7.813 0 0 1-7.812 7.813H17.64C6.875 98.188 0 84.822 0 69.851s6.875-28.335 17.64-37.109h74.547A7.813 7.813 0 0 1 100 40.555"/><path fill="#E2635C" d="M17.643 106.961h24.025a7.813 7.813 0 0 1-7.812-7.813V40.555a7.813 7.813 0 0 1 7.812-7.813H17.643C6.877 41.517 0 54.88 0 69.852s6.877 28.334 17.643 37.109"/><path fill="#FFC839" d="M9.766 46.414a3.906 3.906 0 0 1 3.906-3.906h31.25a3.906 3.906 0 1 1 0 7.812h-31.25a3.906 3.906 0 0 1-3.906-3.906"/><path fill="#FFB332" d="M21.484 46.414a3.906 3.906 0 0 1 3.907-3.906H13.67a3.906 3.906 0 1 0 0 7.812h11.72a3.906 3.906 0 0 1-3.907-3.906M66.344 108.914h11.719a1.953 1.953 0 0 0 1.953-1.953V32.742a1.953 1.953 0 0 0-1.953-1.953H66.344a1.953 1.953 0 0 0-1.953 1.953v74.219c0 1.079.874 1.953 1.953 1.953"/><path fill="#FF9433" d="M80.016 106.822a7.813 7.813 0 0 0-15.625 0v-48.55a7.813 7.813 0 0 0 15.625 0z"/><path fill="#FFC839" d="M70.25 108.914h-2.93V30.789h2.93z"/><path fill="#FFB332" d="M67.32 100.726a7.8 7.8 0 0 1 2.93-1.47V65.838a7.8 7.8 0 0 1-2.93-1.47z"/><path fill="#FFC839" d="M74.157 30.79h2.93v78.124h-2.93z"/><path fill="#FFB332" d="M74.157 99.256c1.086.28 2.08.789 2.93 1.47V64.368a7.8 7.8 0 0 1-2.93 1.47z"/><path fill="#FFE177" d="M74.157 79.199h19.108c0-6.558-2.953-13.115-5.78-13.115-7.097 0-13.328 12.163-13.328 12.163z"/><path fill="#FFC839" d="M70.25 78.247s-6.23-12.163-13.328-12.163c-2.827 0-5.78 6.557-5.78 13.115h19.109zM70.25 85.895H51.143c0 6.557 2.952 13.115 5.779 13.115 7.097 0 13.328-12.163 13.328-12.163z"/><path fill="#FFE177" d="M74.157 86.847s6.23 12.163 13.328 12.163c2.827 0 5.78-6.557 5.78-13.115H74.155z"/><path fill="#FFE177" d="M74.157 85.564s11.47 8.638 17.568 8.638c6.097 0 6.097-23.31 0-23.31S74.157 79.53 74.157 79.53zM70.25 79.53s-11.47-8.638-17.568-8.638c-6.097 0-6.097 23.31 0 23.31s17.568-8.638 17.568-8.638z"/><path fill="#FCF2C8" d="M74.157 74.734c-.713 0-1.379.194-1.953.527a3.9 3.9 0 0 0-1.954-.527 3.906 3.906 0 0 0-3.906 3.907v7.812a3.906 3.906 0 0 0 3.906 3.906c.713 0 1.379-.193 1.954-.526a3.906 3.906 0 0 0 5.86-3.38v-7.812a3.906 3.906 0 0 0-3.907-3.907"/><path fill="#FFE177" d="M70.25 86.453v-7.812c0-1.445.787-2.704 1.954-3.38a3.9 3.9 0 0 0-1.954-.526 3.906 3.906 0 0 0-3.906 3.906v7.812a3.906 3.906 0 0 0 3.906 3.907c.713 0 1.379-.194 1.954-.527a3.9 3.9 0 0 1-1.954-3.38"/><path fill="#FFC839" d="M13.672 62.04a3.906 3.906 0 1 0 0-7.813 3.906 3.906 0 0 0 0 7.812"/><path fill="#FFB332" d="M13.672 58.133c0-1.445.787-2.704 1.953-3.38a3.9 3.9 0 0 0-1.953-.526 3.906 3.906 0 1 0 0 7.812c.712 0 1.378-.194 1.953-.527a3.9 3.9 0 0 1-1.953-3.38"/><path fill="#FFC839" d="M25.39 62.04a3.906 3.906 0 1 0 0-7.813 3.906 3.906 0 0 0 0 7.812"/><path fill="#FFB332" d="M25.39 58.133c0-1.445.787-2.704 1.954-3.38a3.9 3.9 0 0 0-1.953-.526 3.906 3.906 0 1 0 0 7.812c.712 0 1.378-.194 1.953-.527a3.9 3.9 0 0 1-1.953-3.38"/></svg>
